T: O'Neill's Maggot
M: 6/8
L: 1/8
K: Dmaj
~ | G2 E A2 C | DED D2 :||: a3 a2 f | a3 a2 f | g2 e b2 e | g2 e b2 e | a3 a2 f |a3 a2 f | e2 d e2 f | ded d3 :|
